X:42
T:Alexander
S:John Moore's Book 3
Z:Transcribed by Edmund Spriggs 05/2021
%%VWML: Moore1-4495-p33-0
F:https://www.vwml.org/record/Moore3/4495/p33
N:Key of signature of one sharp is shown in the manuscript.
N:A fragment of indistinct notation appears below this tune, in a different metre.
M:6/8
L:1/8
K:G
BcB d2d|cBA B3|GFG A2G|FEF G3:|
|:ABA BFd|Agd Aaf|gcA dAF|AGF E3|
ABA AFd|Afd Aaf|gec dAF|AGED3:|
|:cdc aga|ded bab|cdc aga|fef g3|
cdc aga|ded bab|cdc aga|fef g3:|



%abc
%%abc-alias none
%%abc-creator ABCexplorer 1.6.1 [15/05/2021]

